packages/ui-icons/src/Service-logos/24/Uber.svg

<svg viewBox="0 0 32 32" fill="none" xmlns="http://www.w3.org/2000/svg">
<path d="M16 28C22.6274 28 28 22.6274 28 16C28 9.37258 22.6274 4 16 4C9.37258 4 4 9.37258 4 16C4 22.6274 9.37258 28 16 28Z" fill="black"/>
<path d="M9.61563 18.2312C10.4406 18.2312 11.0828 17.5937 11.0828 16.6468V12.9672H11.9781V18.9343H11.0922V18.3812C10.8883 18.5922 10.6434 18.7593 10.3725 18.8721C10.1017 18.985 9.81059 19.0413 9.51719 19.0375C8.2375 19.0375 7.25781 18.1093 7.25781 16.7031V12.9719H8.15312V16.6515C8.15312 17.6125 8.78125 18.2312 9.61563 18.2312ZM12.6437 12.9672H13.5063V15.1422C13.7075 14.9373 13.9475 14.7746 14.2122 14.6635C14.477 14.5525 14.7613 14.4953 15.0484 14.4953C15.6508 14.4953 16.2284 14.7346 16.6543 15.1605C17.0803 15.5864 17.3195 16.164 17.3195 16.7664C17.3195 17.3687 17.0803 17.9464 16.6543 18.3723C16.2284 18.7982 15.6508 19.0375 15.0484 19.0375C14.7599 19.0377 14.4742 18.9806 14.2078 18.8695C13.9415 18.7585 13.6998 18.5957 13.4969 18.3906V18.9343H12.6437V12.9672ZM14.9875 18.2734C15.286 18.2752 15.5784 18.1885 15.8276 18.0242C16.0769 17.8599 16.2718 17.6254 16.3877 17.3503C16.5037 17.0752 16.5354 16.7719 16.479 16.4788C16.4226 16.1856 16.2805 15.9158 16.0707 15.7034C15.861 15.491 15.5929 15.3456 15.3005 15.2855C15.0081 15.2255 14.7044 15.2535 14.4279 15.366C14.1514 15.4785 13.9145 15.6705 13.7471 15.9177C13.5797 16.1649 13.4894 16.4561 13.4875 16.7547V16.764C13.4863 16.961 13.5238 17.1563 13.5981 17.3388C13.6723 17.5212 13.7818 17.6873 13.9202 17.8274C14.0586 17.9676 14.2233 18.0791 14.4048 18.1556C14.5863 18.2322 14.7811 18.2722 14.9781 18.2734H14.9875ZM19.9047 14.5C21.1562 14.5 22.0797 15.4609 22.0797 16.7593V17.0406H18.5453C18.5978 17.3847 18.7718 17.6987 19.0358 17.9257C19.2997 18.1527 19.6362 18.2777 19.9844 18.2781C20.4859 18.2781 20.9125 18.0718 21.2359 17.6406L21.8594 18.1C21.4234 18.6812 20.7766 19.0281 19.9844 19.0281C18.6813 19.0281 17.6734 18.0578 17.6734 16.7593C17.6688 15.5312 18.6344 14.5 19.9047 14.5ZM18.5547 16.3562H21.2031C21.0578 15.6906 20.5234 15.25 19.8812 15.25C19.2484 15.25 18.7094 15.6953 18.5547 16.3562ZM24.3859 15.3531C23.8234 15.3531 23.4156 15.789 23.4156 16.4593V18.9296H22.5531V14.5843H23.4062V15.1234C23.6172 14.7718 23.9688 14.5515 24.4469 14.5515H24.7469V15.3531H24.3859Z" fill="white"/>
</svg>

<svg viewBox="0 0 32 32" fill="none" xmlns="http://www.w3.org/2000/svg"><path d="M16 28c6.627 0 12-5.373 12-12S22.627 4 16 4 4 9.373 4 16s5.373 12 12 12Z" fill="#000"/><path d="M9.616 18.231c.825 0 1.467-.637 1.467-1.584v-3.68h.895v5.967h-.886v-.553a2.15 2.15 0 0 1-1.575.657c-1.28 0-2.26-.929-2.26-2.335v-3.731h.896v3.68c0 .96.628 1.58 1.463 1.58Zm3.028-5.264h.862v2.175a2.162 2.162 0 0 1 1.542-.647 2.271 2.271 0 1 1 0 4.543 2.18 2.18 0 0 1-1.551-.647v.543h-.853v-5.967Zm2.344 5.306a1.51 1.51 0 1 0-1.5-1.518v.009a1.5 1.5 0 0 0 1.49 1.51h.01Zm4.917-3.773c1.251 0 2.175.96 2.175 2.26v.28h-3.535a1.457 1.457 0 0 0 1.44 1.238c.5 0 .928-.206 1.25-.637l.624.459a2.275 2.275 0 0 1-1.875.928c-1.303 0-2.31-.97-2.31-2.269-.005-1.228.96-2.259 2.23-2.259Zm-1.35 1.856h2.648c-.145-.665-.68-1.106-1.322-1.106-.633 0-1.172.445-1.326 1.106Zm5.83-1.003c-.562 0-.97.436-.97 1.106v2.47h-.862v-4.345h.853v.54c.211-.352.563-.572 1.04-.572h.3v.801h-.36Z" fill="#fff"/></svg>
